common/src/main/resources/icons/toolwindows/toolWindowBookmarks.svg

<svg xmlns="http://www.w3.org/2000/svg" width="13" height="13" fill="#4DB6AC" viewBox="0 0 24 24"><path d="M15 5a2 2 0 0 1 2 2v16l-7-3-7 3V7a2 2 0 0 1 2-2zM9 1h10a2 2 0 0 1 2 2v16l-2-.87V3H7a2 2 0 0 1 2-2"/></svg>

<!--
  - The MIT License (MIT)
  -
  - Copyright (c) 2015-2022 Elior "Mallowigi" Boukhobza
  -
  - Permission is hereby granted, free of charge, to any person obtaining a copy
  - of this software and associated documentation files (the "Software"), to deal
  - in the Software without restriction, including without limitation the rights
  - to use, copy, modify, merge, publish, distribute, sublicense, and/or sell
  - copies of the Software, and to permit persons to whom the Software is
  - furnished to do so, subject to the following conditions:
  -
  - The above copyright notice and this permission notice shall be included in all
  - copies or substantial portions of the Software.
  -
  - THE SOFTWARE IS PROVIDED "AS IS", WITHOUT WARRANTY OF ANY KIND, EXPRESS OR
  - IMPLIED, INCLUDING BUT NOT LIMITED TO THE WARRANTIES OF MERCHANTABILITY,
  - FITNESS FOR A PARTICULAR PURPOSE AND NONINFRINGEMENT. IN NO EVENT SHALL THE
  - AUTHORS OR COPYRIGHT HOLDERS BE LIABLE FOR ANY CLAIM, DAMAGES OR OTHER
  - LIABILITY, WHETHER IN AN ACTION OF CONTRACT, TORT OR OTHERWISE, ARISING FROM,
  - OUT OF OR IN CONNECTION WITH THE SOFTWARE OR THE USE OR OTHER DEALINGS IN THE
  - SOFTWARE.
  -
  -
  -->


<svg xmlns="http://www.w3.org/2000/svg" version="1.1" width="13px" height="13px" viewBox="0 0 24 24"
     fill="#4DB6AC">
    <path
            d="M15,5A2,2 0 0,1 17,7V23L10,20L3,23V7C3,5.89 3.9,5 5,5H15M9,1H19A2,2 0 0,1 21,3V19L19,18.13V3H7A2,2 0 0,1 9,1Z" />

</svg>
